icons/svgs/table-list-solid.svg

<svg width="24" height="24" viewBox="0 0 24 24" fill="none" xmlns="http://www.w3.org/2000/svg">
<path d="M2 5.75C2 4.38281 3.09375 3.25 4.5 3.25H19.5C20.8672 3.25 22 4.38281 22 5.75V18.25C22 19.6562 20.8672 20.75 19.5 20.75H4.5C3.09375 20.75 2 19.6562 2 18.25V5.75ZM4.5 5.75V8.25H7V5.75H4.5ZM19.5 5.75H9.5V8.25H19.5V5.75ZM4.5 10.75V13.25H7V10.75H4.5ZM19.5 10.75H9.5V13.25H19.5V10.75ZM4.5 15.75V18.25H7V15.75H4.5ZM19.5 15.75H9.5V18.25H19.5V15.75Z" fill="black"/>
</svg>

<svg xmlns="http://www.w3.org/2000/svg" width="24" height="24" fill="currentColor" class="icon-table-list-solid" viewBox="0 0 24 24">
  <mask id="a" width="20" height="18" x="2" y="3" maskUnits="userSpaceOnUse" style="mask-type:alpha">
    <path d="M2 5.75c0-1.367 1.094-2.5 2.5-2.5h15c1.367 0 2.5 1.133 2.5 2.5v12.5c0 1.406-1.133 2.5-2.5 2.5h-15a2.47 2.47 0 0 1-2.5-2.5zm2.5 0v2.5H7v-2.5zm15 0h-10v2.5h10zm-15 5v2.5H7v-2.5zm15 0h-10v2.5h10zm-15 5v2.5H7v-2.5zm15 0h-10v2.5h10z"/>
  </mask>
  <g mask="url(#a)">
    <path d="M0 0h24v24H0z"/>
  </g>
</svg>
